public/images/logos/neon.svg

<svg xmlns="http://www.w3.org/2000/svg" width="22" height="24" viewBox="0 0 22 24" fill="none"><g id="Logo sign"><g id="Rectangle 3750 (Stroke)"><path fill-rule="evenodd" clip-rule="evenodd" d="M0 4.64838C0 2.51141 1.6527 0.779053 3.6914 0.779053H17.7187C19.7574 0.779053 21.4101 2.51141 21.4101 4.64838V17.1536C21.4101 19.3644 18.7411 20.3239 17.4467 18.5785L13.3998 13.1217V19.7387C13.3998 21.662 11.9124 23.2211 10.0775 23.2211H3.6914C1.6527 23.2211 0 21.4888 0 19.3518V4.64838ZM3.6914 3.87451C3.28366 3.87451 2.95312 4.22098 2.95312 4.64838V19.3518C2.95312 19.7792 3.28366 20.1257 3.6914 20.1257H10.1883C10.3921 20.1257 10.4467 19.9524 10.4467 19.7387V10.8653C10.4467 8.65452 13.1157 7.69501 14.4101 9.44047L18.457 14.8972V4.64838C18.457 4.22098 18.4956 3.87451 18.0879 3.87451H3.6914Z" fill="#00E0D9"/><path fill-rule="evenodd" clip-rule="evenodd" d="M0 4.64838C0 2.51141 1.6527 0.779053 3.6914 0.779053H17.7187C19.7574 0.779053 21.4101 2.51141 21.4101 4.64838V17.1536C21.4101 19.3644 18.7411 20.3239 17.4467 18.5785L13.3998 13.1217V19.7387C13.3998 21.662 11.9124 23.2211 10.0775 23.2211H3.6914C1.6527 23.2211 0 21.4888 0 19.3518V4.64838ZM3.6914 3.87451C3.28366 3.87451 2.95312 4.22098 2.95312 4.64838V19.3518C2.95312 19.7792 3.28366 20.1257 3.6914 20.1257H10.1883C10.3921 20.1257 10.4467 19.9524 10.4467 19.7387V10.8653C10.4467 8.65452 13.1157 7.69501 14.4101 9.44047L18.457 14.8972V4.64838C18.457 4.22098 18.4956 3.87451 18.0879 3.87451H3.6914Z" fill="url(#paint0_linear_543_202)"/><path fill-rule="evenodd" clip-rule="evenodd" d="M0 4.64838C0 2.51141 1.6527 0.779053 3.6914 0.779053H17.7187C19.7574 0.779053 21.4101 2.51141 21.4101 4.64838V17.1536C21.4101 19.3644 18.7411 20.3239 17.4467 18.5785L13.3998 13.1217V19.7387C13.3998 21.662 11.9124 23.2211 10.0775 23.2211H3.6914C1.6527 23.2211 0 21.4888 0 19.3518V4.64838ZM3.6914 3.87451C3.28366 3.87451 2.95312 4.22098 2.95312 4.64838V19.3518C2.95312 19.7792 3.28366 20.1257 3.6914 20.1257H10.1883C10.3921 20.1257 10.4467 19.9524 10.4467 19.7387V10.8653C10.4467 8.65452 13.1157 7.69501 14.4101 9.44047L18.457 14.8972V4.64838C18.457 4.22098 18.4956 3.87451 18.0879 3.87451H3.6914Z" fill="url(#paint1_linear_543_202)" fill-opacity="0.4"/></g><path id="Rectangle 3750 (Stroke)_2" d="M17.7193 0.779053C19.758 0.779053 21.4107 2.51141 21.4107 4.64838V17.1536C21.4107 19.3644 18.7417 20.3239 17.4472 18.5785L13.4004 13.1217V19.7387C13.4004 21.662 11.913 23.2211 10.0781 23.2211C10.282 23.2211 10.4473 23.0479 10.4473 22.8342V10.8653C10.4473 8.65452 13.1163 7.69501 14.4107 9.44047L18.4576 14.8972V1.55292C18.4576 1.12552 18.1271 0.779053 17.7193 0.779053Z" fill="#63F655"/></g><defs><linearGradient id="paint0_linear_543_202" x1="21.4101" y1="23.2211" x2="1.57912" y2="1.70524" gradient-units="userSpaceOnUse"><stop stop-color="#62F755"/><stop offset="1" stop-color="#8FF986" stop-opacity="0"/></linearGradient><linearGradient id="paint1_linear_543_202" x1="21.4101" y1="23.2211" x2="8.5413" y2="18.4457" gradient-units="userSpaceOnUse"><stop stop-opacity="0.9"/><stop offset="1" stop-color="#1A1A1A" stop-opacity="0"/></linearGradient></defs></svg>

<svg xmlns="http://www.w3.org/2000/svg" width="22" height="24" fill="none"><g fill-rule="evenodd" clip-rule="evenodd"><path fill="#00e0d9" d="M0 4.648C0 2.511 1.653.78 3.691.78H17.72c2.038 0 3.691 1.732 3.691 3.87v12.505c0 2.21-2.669 3.17-3.963 1.424L13.4 13.122v6.617c0 1.923-1.488 3.482-3.322 3.482H3.69c-2.037 0-3.69-1.731-3.69-3.87zm3.691-.773c-.407 0-.738.346-.738.773v14.704c0 .427.33.774.738.774h6.497c.204 0 .259-.174.259-.387v-8.874c0-2.21 2.669-3.17 3.963-1.425l4.047 5.457V4.648c0-.427.039-.773-.37-.773z"/><path fill="url(#a)" d="M0 4.648C0 2.511 1.653.78 3.691.78H17.72c2.038 0 3.691 1.732 3.691 3.87v12.505c0 2.21-2.669 3.17-3.963 1.424L13.4 13.122v6.617c0 1.923-1.488 3.482-3.322 3.482H3.69c-2.037 0-3.69-1.731-3.69-3.87zm3.691-.773c-.407 0-.738.346-.738.773v14.704c0 .427.33.774.738.774h6.497c.204 0 .259-.174.259-.387v-8.874c0-2.21 2.669-3.17 3.963-1.425l4.047 5.457V4.648c0-.427.039-.773-.37-.773z"/><path fill="url(#b)" fill-opacity=".4" d="M0 4.648C0 2.511 1.653.78 3.691.78H17.72c2.038 0 3.691 1.732 3.691 3.87v12.505c0 2.21-2.669 3.17-3.963 1.424L13.4 13.122v6.617c0 1.923-1.488 3.482-3.322 3.482H3.69c-2.037 0-3.69-1.731-3.69-3.87zm3.691-.773c-.407 0-.738.346-.738.773v14.704c0 .427.33.774.738.774h6.497c.204 0 .259-.174.259-.387v-8.874c0-2.21 2.669-3.17 3.963-1.425l4.047 5.457V4.648c0-.427.039-.773-.37-.773z"/></g><path fill="#63f655" d="M17.72.78c2.038 0 3.69 1.731 3.69 3.868v12.506c0 2.21-2.668 3.17-3.963 1.424L13.4 13.122v6.617c0 1.923-1.487 3.482-3.322 3.482.204 0 .37-.173.37-.387V10.865c0-2.21 2.668-3.17 3.963-1.425l4.047 5.457V1.553c0-.427-.33-.774-.739-.774"/><defs><linearGradient id="a" x1="21.41" x2="1.579" y1="23.221" y2="1.705"><stop stop-color="#62f755"/><stop offset="1" stop-color="#8ff986" stop-opacity="0"/></linearGradient><linearGradient id="b" x1="21.41" x2="8.541" y1="23.221" y2="18.446"><stop stop-opacity=".9"/><stop offset="1" stop-color="#1a1a1a" stop-opacity="0"/></linearGradient></defs></svg>
